X: 22637
T: Laington's
R: reel
M: 4/4
K: Amajor
cB|:AFEF A2ce|fece f2af|ec c/c/c acec|BABc BdcB|
AFEF A2ag|fece f2af|ec c/c/c acec|1 BABc AdcB:|2 BABc Afec||
|:c2Ac c2Ac|B/B/B GB EBGB|ABce fdaf|ecAc Bfdc|
c2Ac c2Ac|B/B/B GB EBGB|ABce fdaf|1 ecBc Afed:|2 ecBc A2||

